; generated by Slic3r 1.2.9 on 2018-09-08 at 15:56:39

; external perimeters extrusion width = 0.50mm
; perimeters extrusion width = 0.52mm
; infill extrusion width = 0.52mm
; solid infill extrusion width = 0.52mm
; top infill extrusion width = 0.52mm

M107
;Basic settings: Layer height: 0.5 Walls: [wall_thickness] Fill: 20%
;Print time: [print_time]
;Filament used: [filament_amount]m [filament_weight]g
;Filament cost: [filament_cost]
;M190 R60 ;Uncomment to add your own bed temperature line
;M109 R240 ;Uncomment to add your own temperature line
G26                          ; clear potential 'probe fail' condition
G21                          ; metric values
G90                          ; absolute positioning
M82                          ; set extruder to absolute mode
M107                         ; start with the fan off
G92 E0                       ; set extruder position to 0
M140 S60; get bed heating up
G28                          ; home all
M109 R150                    ; set to cleaning temp and wait
G1 Z150 E-30 F75             ; suck up XXmm of filament
M109 R170                    ; heat up rest of way
G1 X45 Y174 F11520           ; move behind scraper
G1 Z0  F1200                 ; CRITICAL: set Z to height of top of scraper
G1 X45 Y174 Z-.5 F4000       ; wiping ; plunge into wipe pad
G1 X55 Y172 Z-.5 F4000       ; wiping
G1 X45 Y174 Z0 F4000         ; wiping
G1 X55 Y172 F4000            ; wiping
G1 X45 Y174 F4000            ; wiping
G1 X55 Y172 F4000            ; wiping
G1 X45 Y174 F4000            ; wiping
G1 X55 Y172 F4000            ; wiping
G1 X60 Y174 F4000            ; wiping
G1 X80 Y172 F4000            ; wiping
G1 X60 Y174 F4000            ; wiping
G1 X80 Y172 F4000            ; wiping
G1 X60 Y174 F4000            ; wiping
G1 X90 Y172 F4000            ; wiping
G1 X80 Y174 F4000            ; wiping
G1 X100 Y172 F4000           ; wiping
G1 X80 Y174 F4000            ; wiping
G1 X100 Y172 F4000           ; wiping
G1 X80 Y174 F4000            ; wiping
G1 X100 Y172 F4000           ; wiping
G1 X110 Y174 F4000           ; wiping
G1 X100 Y172 F4000           ; wiping
G1 X110 Y174 F4000           ; wiping
G1 X100 Y172 F4000           ; wiping
G1 X110 Y174 F4000           ; wiping
G1 X115 Y172 Z-0.5 F1000     ; wipe slower and bury noz in cleanish area
G1 Z10                       ; raise z
G28 X0 Y0                    ; home x and y
M109 R170                    ; set to probing temp
M204 S300                    ; set accel for probing
G29                          ; Probe
M204 S2000                   ; set accel back to normal
G1 X5 Y15 Z10 F5000          ; get out the way
M400                         ; clear buffer
G4 S1                        ; pause
M109 R240    ; set extruder temp and wait
M190 R60; get bed temping up during first layer
G1 Z2 E0 F75                 ; extrude filament back into nozzle
G21 ; set units to millimeters
G90 ; use absolute coordinates
M82 ; use absolute distances for extrusion
G92 E0
G1 Z0.500 F12000.000
G1 E-4.00000 F1500.00000
G92 E0
G1 X55.117 Y65.242 F12000.000
G1 E4.00000 F1500.00000
G1 X57.274 Y64.435 E4.14541 F600.000
G1 X58.500 Y64.322 E4.22314
G1 X93.500 Y64.322 E6.43324
G1 X95.768 Y64.719 E6.57864
G1 X97.767 Y65.863 E6.72405 F600.000
G1 X99.258 Y67.617 E6.86946
G1 X100.065 Y69.774 E7.01486
G1 X100.178 Y71.000 E7.09260
G1 X100.178 Y81.000 E7.72405
G1 X99.781 Y83.268 E7.86946
G1 X98.637 Y85.267 E8.01487
G1 X96.883 Y86.758 E8.16027
G1 X94.726 Y87.565 E8.30568
G1 X93.500 Y87.678 E8.38342
G1 X58.500 Y87.678 E10.59351
G1 X56.232 Y87.281 E10.73892
G1 X54.233 Y86.137 E10.88432
G1 X52.742 Y84.383 E11.02973
G1 X51.935 Y82.226 E11.17513
G1 X51.822 Y81.000 E11.25287
G1 X51.822 Y71.000 E11.88433
G1 X52.219 Y68.732 E12.02973
G1 X53.363 Y66.733 E12.17514
G1 X55.060 Y65.291 E12.31581
G1 X55.687 Y66.007 F12000.000
G1 X55.965 Y65.800 E12.33771 F600.000
G1 X58.500 Y65.215 E12.50201
G1 X93.500 Y65.215 E14.71210
G1 X95.605 Y65.611 E14.84736
G1 X97.421 Y66.746 E14.98262 F600.000
G1 X98.700 Y68.465 E15.11788
G1 X99.285 Y71.000 E15.28218
G1 X99.285 Y81.000 E15.91363
G1 X98.889 Y83.105 E16.04889
G1 X97.754 Y84.921 E16.18415
G1 X96.035 Y86.200 E16.31941
G1 X93.500 Y86.785 E16.48371
G1 X58.500 Y86.785 E18.69380
G1 X56.395 Y86.389 E18.82906
G1 X54.579 Y85.254 E18.96432
G1 X53.300 Y83.535 E19.09958
G1 X52.715 Y81.000 E19.26388
G1 X52.715 Y71.000 E19.89533
G1 X53.111 Y68.895 E20.03059
G1 X54.246 Y67.079 E20.16585
G1 X55.626 Y66.052 E20.27447
G1 X56.181 Y66.798 F12000.000
G1 X56.796 Y66.413 E20.32032 F600.000
G1 X58.500 Y66.107 E20.42962
G1 X93.500 Y66.107 E22.63971
G1 X95.428 Y66.503 E22.76400
G1 X97.044 Y67.627 E22.88829 F600.000
G1 X98.087 Y69.296 E23.01258
G1 X98.393 Y71.000 E23.12187
G1 X98.393 Y81.000 E23.75333
G1 X97.997 Y82.928 E23.87762
G1 X96.873 Y84.544 E24.00190
G1 X95.204 Y85.587 E24.12619
G1 X93.500 Y85.893 E24.23549
G1 X58.500 Y85.893 E26.44558
G1 X56.572 Y85.497 E26.56987
G1 X54.956 Y84.373 E26.69416
G1 X53.913 Y82.704 E26.81845
G1 X53.607 Y81.000 E26.92774
G1 X53.607 Y71.000 E27.55920
G1 X54.003 Y69.072 E27.68349
G1 X55.127 Y67.456 E27.80778
G1 X56.117 Y66.838 E27.88148
G1 E23.88148 F1500.00000
G92 E0
G1 X93.000 Y80.500 F12000.000
G1 E4.00000 F1500.00000
G1 X84.000 Y80.500 E4.56831 F600.000
G1 X84.000 Y71.500 E5.13662
G1 X93.000 Y71.500 E5.70493
G1 X93.000 Y80.425 E6.26850
G1 X92.567 Y80.250 F12000.000
G1 X92.107 Y79.607 F12000.000
G1 X84.893 Y79.607 E6.72407 F600.000
G1 X84.893 Y72.393 E7.17964
G1 X92.107 Y72.393 E7.63521
G1 X92.107 Y79.532 E8.08605
G1 X91.215 Y78.715 F12000.000
G1 X85.785 Y78.715 E8.42888 F600.000
G1 X85.785 Y73.285 E8.77171
G1 X91.215 Y73.285 E9.11454
G1 X91.215 Y78.640 E9.45263
G1 X86.544 Y74.044 F12000.000
G1 X90.456 Y74.044 E9.72321 F600.000
G1 X90.456 Y77.956 E9.99379
G1 X86.544 Y77.956 E10.26438
G1 X86.544 Y74.119 E10.52977
G1 X87.522 Y75.022 F12000.000
G1 X89.478 Y75.022 E10.66506 F600.000
G1 X89.478 Y76.978 E10.80035
G1 X87.522 Y76.978 E10.93564
G1 X87.522 Y75.097 E11.06574
G1 E7.06574 F1500.00000
G92 E0
G1 X83.500 Y81.000 F12000.000
G1 X76.500 Y76.000 F12000.000
G1 X70.500 Y81.000 F12000.000
G1 X68.500 Y81.000 F12000.000
G1 X68.000 Y80.500 F12000.000
G1 E4.00000 F1500.00000
G1 X59.000 Y80.500 E4.56831 F600.000
G1 X59.000 Y71.500 E5.13662
G1 X68.000 Y71.500 E5.70493
G1 X68.000 Y80.425 E6.26850
G1 X67.567 Y80.250 F12000.000
G1 X67.107 Y79.607 F12000.000
G1 X59.893 Y79.607 E6.72407 F600.000
G1 X59.893 Y72.393 E7.17964
G1 X67.107 Y72.393 E7.63521
G1 X67.107 Y79.532 E8.08605
G1 X66.215 Y78.715 F12000.000
G1 X60.785 Y78.715 E8.42888 F600.000
G1 X60.785 Y73.285 E8.77171
G1 X66.215 Y73.285 E9.11454
G1 X66.215 Y78.640 E9.45263
G1 X61.544 Y74.044 F12000.000
G1 X65.456 Y74.044 E9.72321 F600.000
G1 X65.456 Y77.956 E9.99379
G1 X61.544 Y77.956 E10.26438
G1 X61.544 Y74.119 E10.52977
G1 X62.522 Y75.022 F12000.000
G1 X64.478 Y75.022 E10.66506 F600.000
G1 X64.478 Y76.978 E10.80035
G1 X62.522 Y76.978 E10.93564
G1 X62.522 Y75.097 E11.06574
M104 S240 ; set temperature
M140 S60 ; wait for bed temperature to be reached
G1 Z1.000 F12000.000
G1 E7.06574 F1500.00000
G92 E0
G1 X83.750 Y80.750 F12000.000
G1 E4.00000 F1500.00000
G1 X83.750 Y71.250 E4.26389 F420.000
G1 X93.250 Y71.250 E4.52778
G1 X93.250 Y80.750 E4.79167
G1 X83.825 Y80.750 E5.05347
G1 X84.000 Y80.317 F12000.000
G1 X84.155 Y80.345 F12000.000
G1 X84.155 Y71.655 E5.31022 F420.000
G1 X92.845 Y71.655 E5.56696
G1 X92.845 Y80.345 E5.82371
G1 X84.230 Y80.345 E6.07823
G1 X84.573 Y79.927 F12000.000
G1 X84.573 Y72.073 E6.31030 F420.000
G1 X92.427 Y72.073 E6.54236
G1 X92.427 Y79.927 E6.77442
G1 X84.648 Y79.927 E7.00426
G1 X91.963 Y79.681 F12000.000
G1 X92.181 Y79.463 E7.01341 F1767.636
G1 X92.181 Y78.868 E7.03114
G1 X91.368 Y79.681 E7.06536
G1 X90.773 Y79.681 E7.08309
G1 X92.181 Y78.273 E7.14238
G1 X92.181 Y77.677 E7.16011
G1 X90.177 Y79.681 E7.24447
G1 X89.582 Y79.681 E7.26219
G1 X92.181 Y77.082 E7.37163
G1 X92.181 Y76.487 E7.38936
G1 X88.987 Y79.681 E7.52386
G1 X88.391 Y79.681 E7.54159
G1 X92.181 Y75.891 E7.70116
G1 X92.181 Y75.296 E7.71889
G1 X87.796 Y79.681 E7.90354
G1 X87.201 Y79.681 E7.92127
G1 X92.181 Y74.701 E8.13098
G1 X92.181 Y74.105 E8.14871
G1 X86.605 Y79.681 E8.38350
G1 X86.010 Y79.681 E8.40123
G1 X92.181 Y73.510 E8.66109
G1 X92.181 Y72.915 E8.67882
G1 X85.415 Y79.681 E8.96375
G1 X84.839 Y79.661 E8.98089
G1 X92.161 Y72.339 E9.28921
G1 X91.585 Y72.319 E9.30635
G1 X84.819 Y79.085 E9.59129
G1 X84.819 Y78.490 E9.60901
G1 X90.990 Y72.319 E9.86887
G1 X90.395 Y72.319 E9.88660
G1 X84.819 Y77.895 E10.12139
G1 X84.819 Y77.299 E10.13912
G1 X89.799 Y72.319 E10.34884
G1 X89.204 Y72.319 E10.36657
G1 X84.819 Y76.704 E10.55121
G1 X84.819 Y76.109 E10.56894
G1 X88.609 Y72.319 E10.72852
G1 X88.013 Y72.319 E10.74624
G1 X84.819 Y75.513 E10.88075
G1 X84.819 Y74.918 E10.89848
G1 X87.418 Y72.319 E11.00791
G1 X86.823 Y72.319 E11.02564
G1 X84.819 Y74.323 E11.11000
G1 X84.819 Y73.727 E11.12773
G1 X86.227 Y72.319 E11.18702
G1 X85.632 Y72.319 E11.20474
G1 X84.819 Y73.132 E11.23896
G1 X84.819 Y72.537 E11.25669
G1 X85.037 Y72.319 E11.26584
G1 E7.26584 F1500.00000
G92 E0
G1 X83.500 Y81.000 F12000.000
G1 X76.500 Y76.000 F12000.000
G1 X70.500 Y81.000 F12000.000
G1 X68.500 Y81.000 F12000.000
G1 X68.250 Y80.750 F12000.000
G1 E4.00000 F1500.00000
G1 X58.750 Y80.750 E4.26389 F420.000
G1 X58.750 Y71.250 E4.52778
G1 X68.250 Y71.250 E4.79167
G1 X68.250 Y80.675 E5.05347
G1 X67.817 Y80.500 F12000.000
G1 X67.845 Y80.345 F12000.000
G1 X59.155 Y80.345 E5.31022 F420.000
G1 X59.155 Y71.655 E5.56696
G1 X67.845 Y71.655 E5.82371
G1 X67.845 Y80.270 E6.07823
G1 X67.427 Y79.927 F12000.000
G1 X59.573 Y79.927 E6.31030 F420.000
G1 X59.573 Y72.073 E6.54236
G1 X67.427 Y72.073 E6.77442
G1 X67.427 Y79.852 E7.00426
G1 X66.963 Y79.681 F12000.000
G1 X67.181 Y79.463 E7.01341 F1767.636
G1 X67.181 Y78.868 E7.03114
G1 X66.368 Y79.681 E7.06536
G1 X65.773 Y79.681 E7.08309
G1 X67.181 Y78.273 E7.14238
G1 X67.181 Y77.677 E7.16011
G1 X65.177 Y79.681 E7.24447
G1 X64.582 Y79.681 E7.26219
G1 X67.181 Y77.082 E7.37163
G1 X67.181 Y76.487 E7.38936
G1 X63.987 Y79.681 E7.52386
G1 X63.391 Y79.681 E7.54159
G1 X67.181 Y75.891 E7.70116
G1 X67.181 Y75.296 E7.71889
G1 X62.796 Y79.681 E7.90354
G1 X62.201 Y79.681 E7.92127
G1 X67.181 Y74.701 E8.13098
G1 X67.181 Y74.105 E8.14871
G1 X61.605 Y79.681 E8.38350
G1 X61.010 Y79.681 E8.40123
G1 X67.181 Y73.510 E8.66109
G1 X67.181 Y72.915 E8.67882
G1 X60.415 Y79.681 E8.96375
G1 X59.839 Y79.661 E8.98089
G1 X67.161 Y72.339 E9.28921
G1 X66.585 Y72.319 E9.30635
G1 X59.819 Y79.085 E9.59129
G1 X59.819 Y78.490 E9.60901
G1 X65.990 Y72.319 E9.86887
G1 X65.395 Y72.319 E9.88660
G1 X59.819 Y77.895 E10.12139
G1 X59.819 Y77.299 E10.13912
G1 X64.799 Y72.319 E10.34884
G1 X64.204 Y72.319 E10.36657
G1 X59.819 Y76.704 E10.55121
G1 X59.819 Y76.109 E10.56894
G1 X63.609 Y72.319 E10.72852
G1 X63.013 Y72.319 E10.74624
G1 X59.819 Y75.513 E10.88075
G1 X59.819 Y74.918 E10.89848
G1 X62.418 Y72.319 E11.00791
G1 X61.823 Y72.319 E11.02564
G1 X59.819 Y74.323 E11.11000
G1 X59.819 Y73.727 E11.12773
G1 X61.227 Y72.319 E11.18702
G1 X60.632 Y72.319 E11.20474
G1 X59.819 Y73.132 E11.23896
G1 X59.819 Y72.537 E11.25669
G1 X60.037 Y72.319 E11.26584
M106 S127.5
G1 Z1.500 F12000.000
G1 E7.26584 F1500.00000
G92 E0
G1 X83.750 Y80.750 F12000.000
G1 E4.00000 F1500.00000
G1 X83.750 Y71.250 E4.26389 F420.000
G1 X93.250 Y71.250 E4.52778
G1 X93.250 Y80.750 E4.79167
G1 X83.825 Y80.750 E5.05347
G1 X84.000 Y80.317 F12000.000
G1 X84.155 Y80.345 F12000.000
G1 X84.155 Y71.655 E5.31022 F420.000
G1 X92.845 Y71.655 E5.56696
G1 X92.845 Y80.345 E5.82371
G1 X84.230 Y80.345 E6.07823
G1 X84.573 Y79.927 F12000.000
G1 X84.573 Y72.073 E6.31030 F420.000
G1 X92.427 Y72.073 E6.54236
G1 X92.427 Y79.927 E6.77442
G1 X84.648 Y79.927 E7.00426
G1 X84.819 Y79.463 F12000.000
G1 X85.037 Y79.681 E7.01341 F1767.636
G1 X85.632 Y79.681 E7.03114
G1 X84.819 Y78.868 E7.06536
G1 X84.819 Y78.273 E7.08309
G1 X86.227 Y79.681 E7.14238
G1 X86.823 Y79.681 E7.16010
G1 X84.819 Y77.677 E7.24447
G1 X84.819 Y77.082 E7.26219
G1 X87.418 Y79.681 E7.37163
G1 X88.013 Y79.681 E7.38935
G1 X84.819 Y76.487 E7.52386
G1 X84.819 Y75.891 E7.54159
G1 X88.609 Y79.681 E7.70116
G1 X89.204 Y79.681 E7.71889
G1 X84.819 Y75.296 E7.90354
G1 X84.819 Y74.701 E7.92126
G1 X89.799 Y79.681 E8.13098
G1 X90.395 Y79.681 E8.14871
G1 X84.819 Y74.105 E8.38350
G1 X84.819 Y73.510 E8.40123
G1 X90.990 Y79.681 E8.66109
G1 X91.585 Y79.681 E8.67882
G1 X84.819 Y72.915 E8.96375
G1 X84.839 Y72.339 E8.98089
G1 X92.161 Y79.661 E9.28921
G1 X92.181 Y79.085 E9.30635
G1 X85.415 Y72.319 E9.59128
G1 X86.010 Y72.319 E9.60901
G1 X92.181 Y78.490 E9.86887
G1 X92.181 Y77.895 E9.88660
G1 X86.605 Y72.319 E10.12139
G1 X87.201 Y72.319 E10.13912
G1 X92.181 Y77.299 E10.34884
G1 X92.181 Y76.704 E10.36656
G1 X87.796 Y72.319 E10.55121
G1 X88.391 Y72.319 E10.56894
G1 X92.181 Y76.109 E10.72851
G1 X92.181 Y75.513 E10.74624
G1 X88.987 Y72.319 E10.88075
G1 X89.582 Y72.319 E10.89847
G1 X92.181 Y74.918 E11.00791
G1 X92.181 Y74.323 E11.02564
G1 X90.177 Y72.319 E11.11000
G1 X90.773 Y72.319 E11.12772
G1 X92.181 Y73.727 E11.18701
G1 X92.181 Y73.132 E11.20474
G1 X91.368 Y72.319 E11.23896
G1 X91.963 Y72.319 E11.25669
G1 X92.181 Y72.537 E11.26584
G1 E7.26584 F1500.00000
G92 E0
G1 X83.500 Y81.000 F12000.000
G1 X76.500 Y76.000 F12000.000
G1 X70.500 Y81.000 F12000.000
G1 X68.500 Y81.000 F12000.000
G1 X68.250 Y80.750 F12000.000
G1 E4.00000 F1500.00000
G1 X58.750 Y80.750 E4.26389 F420.000
G1 X58.750 Y71.250 E4.52778
G1 X68.250 Y71.250 E4.79167
G1 X68.250 Y80.675 E5.05347
G1 X67.817 Y80.500 F12000.000
G1 X67.845 Y80.345 F12000.000
G1 X59.155 Y80.345 E5.31022 F420.000
G1 X59.155 Y71.655 E5.56696
G1 X67.845 Y71.655 E5.82371
G1 X67.845 Y80.270 E6.07823
G1 X67.427 Y79.927 F12000.000
G1 X59.573 Y79.927 E6.31030 F420.000
G1 X59.573 Y72.073 E6.54236
G1 X67.427 Y72.073 E6.77442
G1 X67.427 Y79.852 E7.00426
G1 X67.181 Y72.537 F12000.000
G1 X66.963 Y72.319 E7.01341 F1767.636
G1 X66.368 Y72.319 E7.03114
G1 X67.181 Y73.132 E7.06536
G1 X67.181 Y73.727 E7.08309
G1 X65.773 Y72.319 E7.14238
G1 X65.177 Y72.319 E7.16011
G1 X67.181 Y74.323 E7.24447
G1 X67.181 Y74.918 E7.26219
G1 X64.582 Y72.319 E7.37163
G1 X63.987 Y72.319 E7.38936
G1 X67.181 Y75.513 E7.52386
G1 X67.181 Y76.109 E7.54159
G1 X63.391 Y72.319 E7.70116
G1 X62.796 Y72.319 E7.71889
G1 X67.181 Y76.704 E7.90354
G1 X67.181 Y77.299 E7.92127
G1 X62.201 Y72.319 E8.13098
G1 X61.605 Y72.319 E8.14871
G1 X67.181 Y77.895 E8.38350
G1 X67.181 Y78.490 E8.40123
G1 X61.010 Y72.319 E8.66109
G1 X60.415 Y72.319 E8.67882
G1 X67.181 Y79.085 E8.96375
G1 X67.161 Y79.661 E8.98089
G1 X59.839 Y72.339 E9.28921
G1 X59.819 Y72.915 E9.30635
G1 X66.585 Y79.681 E9.59129
G1 X65.990 Y79.681 E9.60901
G1 X59.819 Y73.510 E9.86887
G1 X59.819 Y74.105 E9.88660
G1 X65.395 Y79.681 E10.12139
G1 X64.799 Y79.681 E10.13912
G1 X59.819 Y74.701 E10.34884
G1 X59.819 Y75.296 E10.36657
G1 X64.204 Y79.681 E10.55121
G1 X63.609 Y79.681 E10.56894
G1 X59.819 Y75.891 E10.72852
G1 X59.819 Y76.487 E10.74624
G1 X63.013 Y79.681 E10.88075
G1 X62.418 Y79.681 E10.89848
G1 X59.819 Y77.082 E11.00791
G1 X59.819 Y77.677 E11.02564
G1 X61.823 Y79.681 E11.11000
G1 X61.227 Y79.681 E11.12773
G1 X59.819 Y78.273 E11.18702
G1 X59.819 Y78.868 E11.20474
G1 X60.632 Y79.681 E11.23896
G1 X60.037 Y79.681 E11.25669
G1 X59.819 Y79.463 E11.26584
G1 Z2.000 F12000.000
G1 E7.26584 F1500.00000
G92 E0
G1 X83.750 Y80.750 F12000.000
G1 E4.00000 F1500.00000
G1 X83.750 Y71.250 E4.26389 F420.000
G1 X93.250 Y71.250 E4.52778
G1 X93.250 Y80.750 E4.79167
G1 X83.825 Y80.750 E5.05347
G1 X84.000 Y80.317 F12000.000
G1 X84.155 Y80.345 F12000.000
G1 X84.155 Y71.655 E5.31022 F420.000
